X:3
T:Kiss Her Again. WR1776.03
B:Wm.Randall CDs 1776
Z:vmp.Steve Mansfield 2015
M:6/8
L:1/8
W:Cast off 1 Cu. hands 4 round with the top Cu. cast off
W:another Cu. & hands 4 lead  up to the top
W:cast off right & left
Q:3/8=90
K:D
DFA TAGA | DGB TBAB | Ace gec | dAG FED |
DFA AGA | DGB BAB | Agf edc | d3 D3 :|
|: ecA gec | dfa agf | efg B2d | c3 A3 |
ecA gec | dfa agf | e/f/gf edc | d3 D3 :|

